X:41
T:Of The Father's Love Begotten
%%stretchlast false
M:none
L:1/4
K:C clef=C1
"^I"[CEGc]3/2 "^ii"[CFGd]/ "^I"[CGce] "^IV"[F,Acf] | "^I²"[G,Gce] "^V"[G,GBd] "^I"[CGce]3/2 "^ii7³"[CFcd]/ | "^I"[CEc]4 | [CGce] "^IV¹"[A,Fcf] "^I²"[G,Ecg] "^IV"[F,Fca] | "^V"[G,DBg] "^I"[Cce]3/2 "^IV¹"[A,Ccf]/ "^V"[G,DBg]4 | "^ii"[D,Fda]3/2 | [D,Fdb]/ "^I¹"[E,Gcc'] [E,Gcg] "^IV"[F,Acg] | [F,Acf] "^I²"[G,Gce]3/2 "^V7"[G,FBd]/ "^vi"[A,Ec]4 | [A,CEA]3/2 | "^vii"[A,DEB]/ "^vi"[A,EAc] "^ii"[D,FAd] "^vi"[A,EAc] | [A,CEA]3/2 "^V"[G,DGB]/ "^I"[CEGc]4 | [CEGc]3/2 "^ii"[CFGd]/ | "^I"[CGce] "^IV"[F,Acf] "^I²"[G,Gce] "^V"[G,GBd] | "^I¹"[E,Gcg]2 "^IV"[F,Fca]4 | "^I"[CEcg] [CGce] | "^IV²"[CFAf] "^I"[CEGg] [CEGc] [CEGc]/ "^Imaj7"[CEGB]/ | "^ii"[DFA] "^V7"[G,DFB] "^vi"[A,CEc]3/2 "^IV"[F,CFA]/ | "^I"[CEG]2 "^iii"[EG]3/2 "^V"[GB]/ | "^i"[CGc] [CGc]/ [G,Gcd]/ "^I"[CGce] "^I¹"[EFcg] | "^I"[CFBe] "^IV¹"[A,FBc] "^I²"[G,Ecd]2 | "^I"[CEc]4 |]
